twotone/svg/panorama_vertical.svg

<svg xmlns="http://www.w3.org/2000/svg" width="24" height="24"><path fill="none" d="M0 0h24v24H0V0z"/><g fill="currentColor"><path opacity=".3" d="M6.54 4c.77 2.6 1.16 5.28 1.16 8 0 2.72-.39 5.4-1.16 8h10.91c-.77-2.6-1.16-5.28-1.16-8 0-2.72.39-5.4 1.16-8H6.54z"/><path d="M19.94 21.12c-1.1-2.94-1.64-6.03-1.64-9.12 0-3.09.55-6.18 1.64-9.12a.94.94 0 0 0 .06-.31c0-.34-.23-.57-.63-.57H4.63c-.4 0-.63.23-.63.57 0 .1.02.2.06.31C5.16 5.82 5.71 8.91 5.71 12c0 3.09-.55 6.18-1.64 9.12-.05.11-.07.22-.07.31 0 .33.23.57.63.57h14.75c.39 0 .63-.24.63-.57-.01-.1-.03-.2-.07-.31zM17.45 20H6.54c.77-2.6 1.16-5.28 1.16-8 0-2.72-.39-5.4-1.16-8h10.91c-.77 2.6-1.16 5.28-1.16 8 0 2.72.39 5.4 1.16 8z"/></g></svg>

<?xml version="1.0" encoding="utf-8"?>
<!-- Generator: Adobe Illustrator 19.1.0, SVG Export Plug-In . SVG Version: 6.00 Build 0)  -->
<svg version="1.1" xmlns="http://www.w3.org/2000/svg" xmlns:xlink="http://www.w3.org/1999/xlink" x="0px" y="0px" width="24px"
	 height="24px" viewBox="0 0 24 24" enable-background="new 0 0 24 24" xml:space="preserve">
<g id="Bounding_Boxes">
	<g id="ui_x5F_spec_x5F_header_copy_2">
	</g>
	<path fill="none" d="M0,0h24v24H0V0z"/>
</g>
<g id="Duotone" fill="currentColor">
	<g id="ui_x5F_spec_x5F_header_copy_3">
	</g>
	<g>
		<path opacity="0.3" d="M6.54,4C7.31,6.6,7.7,9.28,7.7,12c0,2.72-0.39,5.4-1.16,8h10.91c-0.77-2.6-1.16-5.28-1.16-8
			c0-2.72,0.39-5.4,1.16-8H6.54z"/>
		<path d="M19.94,21.12c-1.1-2.94-1.64-6.03-1.64-9.12c0-3.09,0.55-6.18,1.64-9.12C19.98,2.77,20,2.66,20,2.57
			C20,2.23,19.77,2,19.37,2H4.63C4.23,2,4,2.23,4,2.57c0,0.1,0.02,0.2,0.06,0.31C5.16,5.82,5.71,8.91,5.71,12
			c0,3.09-0.55,6.18-1.64,9.12C4.02,21.23,4,21.34,4,21.43C4,21.76,4.23,22,4.63,22h14.75c0.39,0,0.63-0.24,0.63-0.57
			C20,21.33,19.98,21.23,19.94,21.12z M17.45,20H6.54c0.77-2.6,1.16-5.28,1.16-8c0-2.72-0.39-5.4-1.16-8h10.91
			c-0.77,2.6-1.16,5.28-1.16,8C16.29,14.72,16.68,17.4,17.45,20z"/>
	</g>
</g>
</svg>
